src/client/web-contents/img/common/badge/badge_family_08.svg

<svg height="32" viewBox="0 0 64 32" width="64" xmlns="http://www.w3.org/2000/svg"><g fill="none" fill-rule="evenodd"><rect fill="#119ed7" height="32" rx="4" width="64"/><path d="m23.4 13.02-.9 1.6c-2.56-.4-5.58-2.22-6.44-4.18-.82 1.94-3.66 3.72-6.42 4.16l-.88-1.58c2.96-.32 6.26-2.4 6.26-5v-.64h2.12v.64c0 2.6 3.72 4.84 6.26 5zm.7 4.86h-16.1v-1.66h7.02v-2.66h2.04v2.66h7.04zm-1.86 6.44h-12.18v-5.2h2.06v3.56h10.12zm12.9-5.18-1.18 1.48c-1.66-.92-3.82-3.2-4.38-5.04-.46 1.9-2.24 4.26-4.4 5.44l-1.28-1.52c2.84-1.58 4.62-4.46 4.62-8.04v-.94h-3.72v-1.66h9.46v1.66h-3.62v.94c0 3.62 1.9 6.24 4.5 7.68zm3-12.14v6.98h2.7v1.72h-2.7v9.12h-2.06v-17.82zm10.42 5.64v-1.68h4.62v-3.96h2.04v17.82h-2.04v-7.98h-4.62v-1.66h4.62v-2.54zm1.86 5.82.3 1.66c-2.1.58-5.24.74-7.44.74l-1.82.02v-12.14h2.04v10.4c2.44 0 4.96-.2 6.92-.68z" fill="#fff"/></g></svg>

<?xml version="1.0" encoding="UTF-8" standalone="no"?>
<svg width="64px" height="32px" viewBox="0 0 64 32" version="1.1" xmlns="http://www.w3.org/2000/svg" xmlns:xlink="http://www.w3.org/1999/xlink">
    <!-- Generator: Sketch 50.2 (55047) - http://www.bohemiancoding.com/sketch -->
    <title>graphic_badge_family_08</title>
    <desc>Created with Sketch.</desc>
    <defs></defs>
    <g id="Icon_Badge_Graphic" stroke="none" stroke-width="1" fill="none" fill-rule="evenodd">
        <g id="##Element/Badge/Family08">
            <rect id="Rectangle-2" fill="#119ED7" x="0" y="0" width="64" height="32" rx="4"></rect>
            <path d="M23.4,13.02 L22.5,14.62 C19.94,14.22 16.92,12.4 16.06,10.44 C15.24,12.38 12.4,14.16 9.64,14.6 L8.76,13.02 C11.72,12.7 15.02,10.62 15.02,8.02 L15.02,7.38 L17.14,7.38 L17.14,8.02 C17.14,10.62 20.86,12.86 23.4,13.02 Z M24.1,17.88 L8,17.88 L8,16.22 L15.02,16.22 L15.02,13.56 L17.06,13.56 L17.06,16.22 L24.1,16.22 L24.1,17.88 Z M22.24,24.32 L10.06,24.32 L10.06,19.12 L12.12,19.12 L12.12,22.68 L22.24,22.68 L22.24,24.32 Z M35.14,19.14 L33.96,20.62 C32.3,19.7 30.14,17.42 29.58,15.58 C29.12,17.48 27.34,19.84 25.18,21.02 L23.9,19.5 C26.74,17.92 28.52,15.04 28.52,11.46 L28.52,10.52 L24.8,10.52 L24.8,8.86 L34.26,8.86 L34.26,10.52 L30.64,10.52 L30.64,11.46 C30.64,15.08 32.54,17.7 35.14,19.14 Z M38.14,7 L38.14,13.98 L40.84,13.98 L40.84,15.7 L38.14,15.7 L38.14,24.82 L36.08,24.82 L36.08,7 L38.14,7 Z M48.56,12.64 L48.56,10.96 L53.18,10.96 L53.18,7 L55.22,7 L55.22,24.82 L53.18,24.82 L53.18,16.84 L48.56,16.84 L48.56,15.18 L53.18,15.18 L53.18,12.64 L48.56,12.64 Z M50.42,18.46 L50.72,20.12 C48.62,20.7 45.48,20.86 43.28,20.86 L41.46,20.88 L41.46,8.74 L43.5,8.74 L43.5,19.14 C45.94,19.14 48.46,18.94 50.42,18.46 Z" id="손자녀" fill="#FFFFFF"></path>
        </g>
    </g>
</svg>
